X: 42101
T: Wandering Trousers
R: jig
M: 6/8
K: Dmajor
f3 age|fdB Adc|BGG Bdg|ecA Ade|
f2 a gfe|fdB Adc|B3 gec|Ace d3:|
f3 baf|efg fdA|Bff ecA|Bff afe|
[1f3 baf|efg f3|Bff ecA|GBd Ace:|
[2f3 baf|baf ecA|GBd Ace|Bef gfe||"end..."d6||

